assets/images/hero/hero-javazone.svg

<?xml version="1.0" encoding="UTF-8"?><svg id="Layer_2" xmlns="http://www.w3.org/2000/svg" viewBox="0 0 626.84 118.83"><defs><style>.cls-1{fill:#403431;}</style></defs><g id="Layer_1-2"><path class="cls-1" d="M23.14,2.46H5.17v1.29h1.68c2.24,0,4.16.8,5.75,2.39,1.59,1.6,2.43,3.51,2.52,5.75v80.68c0,3.71-.67,7.28-2,10.73-1.34,3.45-3.15,6.44-5.43,8.99-2.29,2.54-4.85,4.33-7.69,5.37v1.16c3.28,0,6.34-.67,9.18-2,2.84-1.34,5.34-3.17,7.5-5.5,2.15-2.33,3.83-5.06,5.04-8.21,1.21-3.15,1.81-6.53,1.81-10.15V11.9c.08-2.24.93-4.16,2.52-5.75,1.59-1.59,3.51-2.39,5.75-2.39h1.68v-1.29h-10.34Z"/><path class="cls-1" d="M119.21,89.8c-1.9-1.25-3.49-3.34-4.78-6.27h-.04L82.75,13.58h-1.16c-.09.86-.39,2.03-.91,3.49-.52,1.47-1.1,2.95-1.75,4.46-.65,1.51-1.45,3.3-2.39,5.37l-26.96,57.78c-1.25,2.33-2.7,4.04-4.33,5.12-1.9,1.25-3.75,1.88-5.56,1.88h-1.03v1.29h24.7v-1.29h-1.03c-1.55,0-2.93-.71-4.14-2.13-1.09-1.28-1.29-3.03-.63-5.26l7.42-17.57h32.67l7.2,17.55c.66,2.23.46,3.99-.63,5.28-1.21,1.42-2.54,2.13-4.01,2.13h-1.03v1.29h26.51v-1.29h-1.03c-1.73,0-3.54-.62-5.43-1.88ZM66.61,62.84l14.93-35.34,14.5,35.34h-29.44Z"/><path class="cls-1" d="M193.82,18.55c1.89-1.25,3.75-1.88,5.56-1.88h1.03v-1.29h-24.57v1.29h.91c1.55,0,2.93.71,4.14,2.13,1.08,1.28,1.29,3.03.63,5.25l-23.99,56.79-23.22-56.58c-.66-2.32-.47-4.15.61-5.47,1.16-1.42,2.48-2.13,3.94-2.13h1.04v-1.29h-26.51v1.29h1.03c1.72,0,3.53.63,5.43,1.88,1.9,1.25,3.49,3.34,4.78,6.27h.04l31.64,69.95h1.16c.08-.86.39-2.02.9-3.49.52-1.46,1.1-2.95,1.75-4.46.65-1.51,1.44-3.3,2.39-5.37l26.96-57.79c1.25-2.33,2.69-4.04,4.33-5.12Z"/><path class="cls-1" d="M268.69,89.8c-1.9-1.25-3.49-3.34-4.78-6.27h-.04l-31.64-69.95h-1.16c-.09.86-.39,2.03-.91,3.49-.52,1.47-1.1,2.95-1.75,4.46-.65,1.51-1.45,3.3-2.39,5.37l-26.96,57.78c-1.25,2.33-2.7,4.04-4.33,5.12-1.9,1.25-3.75,1.88-5.56,1.88h-1.03v1.29h24.7v-1.29h-1.03c-1.55,0-2.93-.71-4.14-2.13-1.09-1.28-1.29-3.03-.63-5.26l7.42-17.57h32.67l7.2,17.55c.66,2.23.46,3.99-.63,5.28-1.21,1.42-2.54,2.13-4.01,2.13h-1.03v1.29h26.51v-1.29h-1.03c-1.73,0-3.54-.62-5.43-1.88ZM216.08,62.84l14.93-35.34,14.5,35.34h-29.44Z"/><path class="cls-1" d="M346.85,84.43c-2.89,3.1-6.75,4.65-11.57,4.65h-40.99L349.5,1.81V.65c-.52.26-1.53.52-3.04.78-1.51.26-3.23.47-5.17.65-1.94.17-3.77.26-5.5.26h-35.95c-1.81,0-3.79-.13-5.95-.39-2.16-.26-4.12-.56-5.88-.91-1.77-.34-3.08-.69-3.94-1.03v16.29h1.29v-2.33c0-2.15.73-3.96,2.2-5.43s3.27-2.24,5.43-2.33h43.57l-54.31,85.6v1.16h67.75l4.27-19.91h-1.29c-1.21,4.48-3.25,8.27-6.14,11.38Z"/><path class="cls-1" d="M440.98,24.83c-4.01-3.62-8.66-6.4-13.96-8.34-5.3-1.94-10.97-2.91-17-2.91s-11.68.97-16.94,2.91c-5.26,1.94-9.89,4.72-13.9,8.34-4.01,3.62-7.13,7.91-9.37,12.87-2.24,4.96-3.36,10.45-3.36,16.49s1.12,11.53,3.36,16.49c2.24,4.96,5.37,9.25,9.37,12.87,4.01,3.62,8.64,6.4,13.9,8.34,5.26,1.94,10.9,2.91,16.94,2.91s11.7-.97,17-2.91c5.3-1.94,9.96-4.72,13.96-8.34,4.01-3.62,7.13-7.91,9.37-12.87,2.24-4.96,3.36-10.45,3.36-16.49s-1.12-11.53-3.36-16.49c-2.24-4.96-5.37-9.25-9.37-12.87ZM439.62,73.31c-3.02,5.52-7.11,9.83-12.28,12.93s-10.95,4.65-17.33,4.65-12.02-1.55-17.2-4.65c-5.17-3.1-9.27-7.41-12.28-12.93-3.02-5.52-4.53-11.9-4.53-19.14s1.51-13.73,4.53-19.2c3.02-5.47,7.11-9.76,12.28-12.87,5.17-3.1,10.9-4.65,17.2-4.65s12.15,1.55,17.33,4.65,9.27,7.39,12.28,12.87c3.02,5.48,4.53,11.88,4.53,19.2s-1.51,13.62-4.53,19.14Z"/><path class="cls-1" d="M545.9,15.39h-14.74v1.29h2.2c1.98,0,3.66.65,5.04,1.94,1.38,1.29,2.11,2.89,2.2,4.78v53.4l-67.24-63.35h-1.29c.78,6.38,1.16,11.77,1.16,16.16v55.34c0,1.9-.69,3.49-2.07,4.78-1.38,1.29-3.06,1.94-5.04,1.94h-2.2v1.29h24.44v-1.29h-2.2c-1.9,0-3.56-.65-4.98-1.94s-2.13-2.89-2.13-4.78h-.01l-.1-54,67.35,63.82h1.16c-.43-3.19-.73-6.05-.91-8.6-.17-2.54-.26-5.19-.26-7.95V23.4c0-1.9.71-3.49,2.13-4.78,1.42-1.29,3.08-1.94,4.98-1.94h2.2v-1.29h-9.7Z"/><path class="cls-1" d="M625.55,74.48c-1.21,2.76-2.63,5.24-4.27,7.43-1.64,2.2-3.77,3.92-6.4,5.17-2.63,1.25-6.1,1.88-10.41,1.88h-19.65v-32.84h21.98c1.81,0,3.15.54,4.01,1.62.86,1.08,1.29,2.35,1.29,3.81v1.68h1.42v-18.1h-1.42v1.68c0,1.47-.43,2.74-1.29,3.81-.86,1.08-2.2,1.62-4.01,1.62h-21.98V19.4h26.77c1.98,0,3.56.65,4.72,1.94,1.16,1.29,1.75,2.84,1.75,4.65v1.94h1.42v-14.61c-1.12.43-3.19.88-6.21,1.36-3.02.47-5.86.71-8.53.71h-37.5v1.29h1.81c2.15,0,3.92.65,5.3,1.94,1.38,1.29,2.11,2.93,2.2,4.91v61.16c-.09,1.9-.82,3.54-2.2,4.91s-3.15,2.07-5.3,2.07h-1.81v1.29h52.5l7.11-18.49h-1.29Z"/></g></svg>

<svg width="627" height="119" viewBox="0 0 627 119" fill="none" xmlns="http://www.w3.org/2000/svg">
    <path d="M23.14 2.46H5.17V3.75H6.85C9.09 3.75 11.01 4.55 12.6 6.14C14.19 7.74 15.03 9.65 15.12 11.89V92.57C15.12 96.28 14.45 99.85 13.12 103.3C11.78 106.75 9.97 109.74 7.69 112.29C5.4 114.83 2.84 116.62 0 117.66V118.82C3.28 118.82 6.34 118.15 9.18 116.82C12.02 115.48 14.52 113.65 16.68 111.32C18.83 108.99 20.51 106.26 21.72 103.11C22.93 99.96 23.53 96.58 23.53 92.96V11.9C23.61 9.66 24.46 7.74 26.05 6.15C27.64 4.56 29.56 3.76 31.8 3.76H33.48V2.47H23.14V2.46Z" fill="#403431"/>
    <path d="M119.21 89.8C117.31 88.55 115.72 86.46 114.43 83.53H114.39L82.75 13.58H81.59C81.5 14.44 81.2 15.61 80.68 17.07C80.16 18.54 79.58 20.02 78.93 21.53C78.28 23.04 77.48 24.83 76.54 26.9L49.58 84.68C48.33 87.01 46.88 88.72 45.25 89.8C43.35 91.05 41.5 91.68 39.69 91.68H38.66V92.97H63.36V91.68H62.33C60.78 91.68 59.4 90.97 58.19 89.55C57.1 88.27 56.9 86.52 57.56 84.29L64.98 66.72H97.65L104.85 84.27C105.51 86.5 105.31 88.26 104.22 89.55C103.01 90.97 101.68 91.68 100.21 91.68H99.18V92.97H125.69V91.68H124.66C122.93 91.68 121.12 91.06 119.23 89.8H119.21ZM66.61 62.84L81.54 27.5L96.04 62.84H66.6H66.61Z" fill="#403431"/>
    <path d="M193.82 18.55C195.71 17.3 197.57 16.67 199.38 16.67H200.41V15.38H175.84V16.67H176.75C178.3 16.67 179.68 17.38 180.89 18.8C181.97 20.08 182.18 21.83 181.52 24.05L157.53 80.84L134.31 24.26C133.65 21.94 133.84 20.11 134.92 18.79C136.08 17.37 137.4 16.66 138.86 16.66H139.9V15.37H113.39V16.66H114.42C116.14 16.66 117.95 17.29 119.85 18.54C121.75 19.79 123.34 21.88 124.63 24.81H124.67L156.31 94.76H157.47C157.55 93.9 157.86 92.74 158.37 91.27C158.89 89.81 159.47 88.32 160.12 86.81C160.77 85.3 161.56 83.51 162.51 81.44L189.47 23.65C190.72 21.32 192.16 19.61 193.8 18.53L193.82 18.55Z" fill="#403431"/>
    <path d="M268.69 89.8C266.79 88.55 265.2 86.46 263.91 83.53H263.87L232.23 13.58H231.07C230.98 14.44 230.68 15.61 230.16 17.07C229.64 18.54 229.06 20.02 228.41 21.53C227.76 23.04 226.96 24.83 226.02 26.9L199.06 84.68C197.81 87.01 196.36 88.72 194.73 89.8C192.83 91.05 190.98 91.68 189.17 91.68H188.14V92.97H212.84V91.68H211.81C210.26 91.68 208.88 90.97 207.67 89.55C206.58 88.27 206.38 86.52 207.04 84.29L214.46 66.72H247.13L254.33 84.27C254.99 86.5 254.79 88.26 253.7 89.55C252.49 90.97 251.16 91.68 249.69 91.68H248.66V92.97H275.17V91.68H274.14C272.41 91.68 270.6 91.06 268.71 89.8H268.69ZM216.08 62.84L231.01 27.5L245.51 62.84H216.07H216.08Z" fill="#403431"/>
    <path d="M346.85 84.43C343.96 87.53 340.1 89.08 335.28 89.08H294.29L349.5 1.81V0.650002C348.98 0.910002 347.97 1.17 346.46 1.43C344.95 1.69 343.23 1.9 341.29 2.08C339.35 2.25 337.52 2.34 335.79 2.34H299.84C298.03 2.34 296.05 2.21 293.89 1.95C291.73 1.69 289.77 1.39 288.01 1.04C286.24 0.700002 284.93 0.350002 284.07 0.0100021V16.3H285.36V13.97C285.36 11.82 286.09 10.01 287.56 8.54C289.03 7.07 290.83 6.3 292.99 6.21H336.56L282.25 91.81V92.97H350L354.27 73.06H352.98C351.77 77.54 349.73 81.33 346.84 84.44L346.85 84.43Z" fill="#403431"/>
    <path d="M440.98 24.83C436.97 21.21 432.32 18.43 427.02 16.49C421.72 14.55 416.05 13.58 410.02 13.58C403.99 13.58 398.34 14.55 393.08 16.49C387.82 18.43 383.19 21.21 379.18 24.83C375.17 28.45 372.05 32.74 369.81 37.7C367.57 42.66 366.45 48.15 366.45 54.19C366.45 60.23 367.57 65.72 369.81 70.68C372.05 75.64 375.18 79.93 379.18 83.55C383.19 87.17 387.82 89.95 393.08 91.89C398.34 93.83 403.98 94.8 410.02 94.8C416.06 94.8 421.72 93.83 427.02 91.89C432.32 89.95 436.98 87.17 440.98 83.55C444.99 79.93 448.11 75.64 450.35 70.68C452.59 65.72 453.71 60.23 453.71 54.19C453.71 48.15 452.59 42.66 450.35 37.7C448.11 32.74 444.98 28.45 440.98 24.83ZM439.62 73.31C436.6 78.83 432.51 83.14 427.34 86.24C422.17 89.34 416.39 90.89 410.01 90.89C403.63 90.89 397.99 89.34 392.81 86.24C387.64 83.14 383.54 78.83 380.53 73.31C377.51 67.79 376 61.41 376 54.17C376 46.93 377.51 40.44 380.53 34.97C383.55 29.5 387.64 25.21 392.81 22.1C397.98 19 403.71 17.45 410.01 17.45C416.31 17.45 422.16 19 427.34 22.1C432.52 25.2 436.61 29.49 439.62 34.97C442.64 40.45 444.15 46.85 444.15 54.17C444.15 61.49 442.64 67.79 439.62 73.31Z" fill="#403431"/>
    <path d="M545.9 15.39H531.16V16.68H533.36C535.34 16.68 537.02 17.33 538.4 18.62C539.78 19.91 540.51 21.51 540.6 23.4V76.8L473.36 13.45H472.07C472.85 19.83 473.23 25.22 473.23 29.61V84.95C473.23 86.85 472.54 88.44 471.16 89.73C469.78 91.02 468.1 91.67 466.12 91.67H463.92V92.96H488.36V91.67H486.16C484.26 91.67 482.6 91.02 481.18 89.73C479.76 88.44 479.05 86.84 479.05 84.95H479.04L478.94 30.95L546.29 94.77H547.45C547.02 91.58 546.72 88.72 546.54 86.17C546.37 83.63 546.28 80.98 546.28 78.22V23.4C546.28 21.5 546.99 19.91 548.41 18.62C549.83 17.33 551.49 16.68 553.39 16.68H555.59V15.39H545.89H545.9Z" fill="#403431"/>
    <path d="M625.55 74.48C624.34 77.24 622.92 79.72 621.28 81.91C619.64 84.11 617.51 85.83 614.88 87.08C612.25 88.33 608.78 88.96 604.47 88.96H584.82V56.12H606.8C608.61 56.12 609.95 56.66 610.81 57.74C611.67 58.82 612.1 60.09 612.1 61.55V63.23H613.52V45.13H612.1V46.81C612.1 48.28 611.67 49.55 610.81 50.62C609.95 51.7 608.61 52.24 606.8 52.24H584.82V19.4H611.59C613.57 19.4 615.15 20.05 616.31 21.34C617.47 22.63 618.06 24.18 618.06 25.99V27.93H619.48V13.32C618.36 13.75 616.29 14.2 613.27 14.68C610.25 15.15 607.41 15.39 604.74 15.39H567.24V16.68H569.05C571.2 16.68 572.97 17.33 574.35 18.62C575.73 19.91 576.46 21.55 576.55 23.53V84.69C576.46 86.59 575.73 88.23 574.35 89.6C572.97 90.97 571.2 91.67 569.05 91.67H567.24V92.96H619.74L626.85 74.47H625.56L625.55 74.48Z" fill="#403431"/>
</svg>
